src/icons/arrow-collapse.svg

<svg width="24" height="24" viewBox="0 0 24 24" fill="none" xmlns="http://www.w3.org/2000/svg">
<path d="M22.7071 2.70718L16.4143 9L21 9V11L13 11L13 3L15 3L15 7.58586L21.2929 1.29297L22.7071 2.70718Z" fill="black"/>
<path d="M3 13L3 15L7.58581 15L1.29291 21.2929L2.70712 22.7071L9 16.4142L9 21H11L11 13L3 13Z" fill="black"/>
</svg>

<svg xmlns="http://www.w3.org/2000/svg" width="24" height="24" fill="none"><path fill="currentColor" d="M22.707 2.707 16.414 9H21v2h-8V3h2v4.586l6.293-6.293zM3 13v2h4.586l-6.293 6.293 1.414 1.414L9 16.414V21h2v-8z"/></svg>
